X:1
T:Symphony No. 9 "New World" (4th mvt theme)
C:Antonín Dvořák
O:Op.95
M:4/4
L:1/4
Q:1/4=132
K:Em
% 2-beat pickup: DA-DA into strong B-E landing
EE|BEGB|edcB|A2GF|E4|EEBE|GBed|cBAG|E4|]
